src/assets/jamming.svg

<svg width="20" height="19" viewBox="0 0 20 19" fill="none" xmlns="http://www.w3.org/2000/svg">
<path d="M2.26142 10.9689C1.37242 10.5039 0.857422 9.95089 0.857422 9.35889C0.857422 7.70189 4.88742 6.35889 9.85742 6.35889C14.8274 6.35889 18.8574 7.70189 18.8574 9.35889C18.8574 10.0729 18.1074 10.7289 16.8574 11.2449" stroke="white" stroke-width="1.5" stroke-linecap="round" stroke-linejoin="round"/>
<path d="M9.85742 8.36891L9.86742 8.35791" stroke="white" stroke-width="1.5" stroke-linecap="round" stroke-linejoin="round"/>
<path d="M14.7403 3.35893C14.7353 2.33593 14.4773 1.61193 13.9433 1.33893C12.4663 0.587931 9.44032 3.56893 7.18332 7.99693C4.92732 12.4259 4.29432 16.6259 5.77132 17.3779C6.29832 17.6469 7.02332 17.4389 7.84132 16.8589" stroke="white" stroke-width="1.5" stroke-linecap="round" stroke-linejoin="round"/>
<path d="M7.45751 1.611C6.79751 1.225 6.21451 1.114 5.77151 1.34C4.29451 2.092 4.92751 6.292 7.18451 10.72C9.44051 15.15 12.4665 18.13 13.9425 17.378C15.2555 16.709 14.9015 13.317 13.2225 9.461" stroke="white" stroke-width="1.5" stroke-linecap="round" stroke-linejoin="round"/>
</svg>

<svg xmlns="http://www.w3.org/2000/svg" width="20" height="19" fill="none"><path stroke="#fff" stroke-linecap="round" stroke-linejoin="round" stroke-width="1.5" d="M2.261 10.969C1.372 10.504.857 9.95.857 9.359c0-1.657 4.03-3 9-3s9 1.343 9 3c0 .714-.75 1.37-2 1.886M9.857 8.369l.01-.011"/><path stroke="#fff" stroke-linecap="round" stroke-linejoin="round" stroke-width="1.5" d="M14.74 3.359c-.005-1.023-.263-1.747-.797-2.02-1.477-.751-4.503 2.23-6.76 6.658-2.256 4.429-2.889 8.629-1.412 9.38.527.27 1.252.062 2.07-.518"/><path stroke="#fff" stroke-linecap="round" stroke-linejoin="round" stroke-width="1.5" d="M7.458 1.611c-.66-.386-1.243-.497-1.686-.271-1.477.752-.844 4.952 1.413 9.38 2.256 4.43 5.282 7.41 6.758 6.658 1.313-.669.959-4.061-.72-7.917"/></svg>
